2 Export/Icons/Brands/Opera.svg

<svg xmlns="http://www.w3.org/2000/svg" xmlns:xlink="http://www.w3.org/1999/xlink" width="24" height="24" viewBox="0 0 24 24">
  <defs>
    <path id="opera-a" d="M9.03825,6.9285 C8.04225,8.103 7.39875,9.84075 7.35375,11.7885 L7.35375,12.2115 C7.3995,14.16 8.04225,15.8955 9.03825,17.07075 C10.329,18.74775 12.2475,19.81125 14.3925,19.81125 C15.7095,19.81125 16.9425,19.4085 17.99775,18.708 C16.40925,20.1345 14.3055,21 12,21 C11.856,21 11.71275,20.997 11.5725,20.9895 C6.798,20.76675 3,16.827 3,12 C3,7.02825 7.02975,3 12,3 L12.03375,3 C14.325,3.009 16.41375,3.8745 17.9985,5.29125 C16.9425,4.59375 15.71025,4.188 14.391,4.188 C12.2475,4.188 10.32825,5.253 9.036,6.9285 L9.03825,6.9285 Z M21,12 C21,14.667 19.84125,17.061 17.9985,18.70875 C15.69,19.83375 13.539,19.047 12.8265,18.555 C15.09375,18.057 16.80675,15.315 16.80675,12 C16.80675,8.6835 15.0945,5.94375 12.8265,5.445 C13.53825,4.9545 15.69,4.16775 17.9985,5.29125 C19.84125,6.9375 21,9.33375 21,12 Z"/>
  </defs>
  <g fill="none" fill-rule="evenodd">
    <polygon points="0 0 24 0 24 24 0 24"/>
    <mask id="opera-b" fill="#fff">
      <use xlink:href="#opera-a"/>
    </mask>
    <use fill="#000" xlink:href="#opera-a"/>
    <g fill="#000" mask="url(#opera-b)">
      <rect width="24" height="24"/>
    </g>
  </g>
</svg>

<svg xmlns="http://www.w3.org/2000/svg" xmlns:xlink="http://www.w3.org/1999/xlink" width="24" height="24" viewBox="0 0 24 24">
  <defs>
    <path id="opera-a" d="M9.038 6.928c-.996 1.175-1.64 2.913-1.684 4.86v.423c.045 1.949.688 3.684 1.684 4.86 1.291 1.677 3.21 2.74 5.354 2.74 1.318 0 2.55-.402 3.606-1.103a8.946 8.946 0 0 1-6.426 2.282A8.998 8.998 0 0 1 3 12a9 9 0 0 1 9-9h.034a8.974 8.974 0 0 1 5.964 2.291 6.515 6.515 0 0 0-3.607-1.103c-2.143 0-4.063 1.065-5.355 2.74h.002zM21 12a8.972 8.972 0 0 1-3.002 6.709c-2.308 1.125-4.459.338-5.172-.154 2.268-.498 3.98-3.24 3.98-6.555 0-3.316-1.712-6.056-3.98-6.555.712-.49 2.864-1.277 5.172-.154A8.97 8.97 0 0 1 21 12z"/>
  </defs>
  <g fill="none" fill-rule="evenodd">
    <polygon points="0 0 24 0 24 24 0 24"/>
    <mask id="opera-b" fill="#fff">
      <use xlink:href="#opera-a"/>
    </mask>
    <use fill="#000" xlink:href="#opera-a"/>
    <g fill="#000" mask="url(#opera-b)">
      <rect width="24" height="24"/>
    </g>
  </g>
</svg>
